X: 2044
T: Ashplant, The
R: reel
M: 4/4
K: Edorian
B ~E3 BAGA|B ~E3 DEGA|ABBA Bdef|gedB AAGA|
B z ee BAGA|B ~E3 DEGA|ABBA B/c/def|gedB A2 z2|
B2 eB g2 eB|~B2 ed BAGA|B/c/deB g2 z2|gedB AAGA|
B2 eB g2 eB|~B2 ed BAGA|B/c/deB g2 z G|gedB B2 z2||

